X:1
Q:1/4=92
L:1/16
M:3/4
K:C clef=G2
V:1
%%MIDI program 60
[G-]2[G-]31/32[^G]31/32^A4^A4|^A2-^A31/32Gc2^A2^G2G2|F2-F31/32F^A6^G2|^G62/16G4z4|
G2-G31/32^G^A4^A4|^A2-^A31/32Gc2^A2^G2G2|F2-F31/32F^A6D2|F62/16^D4z4|
F62/16F6^G2|^G31/16G2G8|^G2-^G31/32^G^G4^G2c2|c62/16^A8|
G2-G31/32^A^d6d2|d31/16c2c8|^A2-^A31/32^A^G6D2|F62/16^D4z
L:1/16
M:3/4
K:C clef=F4
V:2
%%MIDI program 60
[^D-]2[^D-]31/32[F]31/32G4G4|G2-G31/32^D^G2G2F2^D2|D2-D31/32DF6D2|F62/16^D4z4|
^D2-^D31/32FG4F4|E2-E31/32EC2D2F2E2|^G,2-^G,31/32CD6^A,2|^G,62/16G,4z4|
D62/16D6F2|F31/16^D2^D8|^D2-^D31/32^DC4C2^D2|^G62/16G8|
^D2-^D31/32GG6^A2|^A31/16^G2^G8|D2-D31/32FF6^A,2|^G,62/16G,4z
L:1/16
M:3/4
K:C clef=F4
V:3
%%MIDI program 60
[^D-]2[^D-]31/32[F]31/32G4G4|G2-G31/32^D^G2G2F2^D2|D2-D31/32DF6D2|F62/16^D4z4|
^D2-^D31/32FG4F4|E2-E31/32EC2D2F2E2|^G,2-^G,31/32CD6^A,2|^G,62/16G,4z4|
D62/16D6F2|F31/16^D2^D8|^D2-^D31/32^DC4C2^D2|^G62/16G8|
^D2-^D31/32GG6^A2|^A31/16^G2^G8|D2-D31/32FF6^A,2|^G,62/16G,4z
L:1/16
M:3/4
K:C clef=F4
V:4
%%MIDI program 48
[^D,,]62/16[^D,]z2z31/32^D,z2z|^D,,62/16^D,z2z^D,z2z|^A,,62/16D,z2z^A,,z2z|^D,62/16^D,,z2z^D,z2z|
^D,,62/16^D,z2z^C,z2z|C,,62/16E,z2zC,z2z|F,62/16^A,,z2z^A,,z2z|^D,62/16^D,,z2zG,,2^D,,2|
[^A,,-]2[^A,,]31/32[^A,,C,]D,2^A,,2C,2D,2|^D,62/16^D,,z2z^D,z2z|C,62/16^G,,z2z^G,z2z|^D,62/16^D,,z2z^D,z2z|
^D,,62/16G,,z2z^D,,z2z|^G,,62/16^D,z2z^G,z2z|^A,,62/16D,z2z^A,,z2z|^D,62/16^D,,z2z^D,,,


